X: 70
T:Jerry McDonald's Kibitzer
R:Reel
C:Emile Benoit
M:C|
L:1/8
Z:Gerry Strong
K:G
ef|:gebe gebe|gebe geeg|fada fada|fada fddf|1gebe gebe|gebe geeg|fada fa
da|gafd e2 ef:|2gfga bgaf|gefd ed A2|gefd e2 gf|
|:edBA dBAF|d2 AG FDDF|EEFD EFGA|gefd e2 gf|edBA dBAF|d2 AG FDDF|EEFD EF
GA|1gefd e2 gf:|2gefd e2||

